X: 41442
T: Two Fingered, The
R: reel
M: 4/4
K: Amajor
|:aAAa fecf|eAcA BAFA|EFAB c/c/c ec|d/d/d fd efge|
aAAa fecf|eAcA BAFA|EFAB c2 ec|d2 ed ce A2:|
|:a2 ba f/f/f fa|fecf ecBc|ABce Acec|d2 fd efge|a2 ba f3 a|
fecf ecBc|1 AE !roll!E2 Acec|d2 fd ce A2:|2 AE !roll!E2 AE !roll!E2|df f/f/f efge|

